X: 94
T: Engelskdans
B:[[Notböcker/Melodier til gamle danske Almuedanse for Violin solo]]
O:Danmark
Z:Søren Bak Vestergaard
M: 3/8
L: 1/16
K: D
!upbow!A2|fefgaf|d4 f2|e^defge|c4 A2|dAFAdf|\
afdfba|gecege|d2 z2:| |:(cd)|A2F2D2|(.E4 G2)|\
FAdcBA|G2E2 (!upbow!cd)|A2F2D2|B2G2E2|D2F2E2|D2 z2:|

